X:72
T:Quick Step. JBs.072
S:Jas.Blackshaw MS, 1837, N.Shropshire
A:North Shropshire
Z:T. Weatherall 2006
M:6/8
L:1/8
Q:3/8=120
R:Jig
K:C
e|c2c ece|gab câ€™2a|gec gec|Bdd d2e|!
c2c ece|gab câ€™ba|gag fed|c3c2:|!
|:g|afa acâ€™a|geg câ€™2a|gec gec|Bdd d2f|!
afa acâ€™a|geg câ€™2 a|gag fed|c3c2:|

